img/illustrations/Online_test.svg

<svg width="145" height="145" viewBox="0 0 145 145" fill="none" xmlns="http://www.w3.org/2000/svg">
<path d="M5 120.03L140 120.08" stroke="#007B64" stroke-width="2" stroke-miterlimit="10" stroke-linecap="round"/>
<path d="M58.9201 107.52H131.98C132.245 107.52 132.5 107.625 132.687 107.813C132.875 108 132.98 108.255 132.98 108.52C132.987 110.022 132.697 111.511 132.128 112.902C131.56 114.292 130.722 115.557 129.665 116.624C128.607 117.691 127.35 118.539 125.964 119.12C124.579 119.701 123.092 120.003 121.59 120.01H23.3101C20.2777 119.991 17.3768 118.77 15.2448 116.613C13.1128 114.457 11.9241 111.542 11.9401 108.51V108.51C11.9401 108.245 12.0455 107.99 12.233 107.803C12.4205 107.615 12.6749 107.51 12.9401 107.51H51.4201" fill="white"/>
<path d="M115.6 28H29.5403C25.6909 28 22.5703 31.1206 22.5703 34.97V100.03C22.5703 103.879 25.6909 107 29.5403 107H115.6C119.45 107 122.57 103.879 122.57 100.03V34.97C122.57 31.1206 119.45 28 115.6 28Z" fill="white"/>
<path d="M62.9302 107.52C62.9302 107.52 70.4502 95.91 89.1802 95.4C108.34 94.87 101.18 82.28 121.91 79.16L122.91 81.25V97.1C122.91 97.1 123.91 106.5 116.7 107.54C109.49 108.58 62.9302 107.52 62.9302 107.52Z" fill="#EBEBEB"/>
<path d="M22.3301 100.34V35.24C22.3274 33.3506 23.0727 31.5369 24.403 30.1953C25.7334 28.8537 27.5407 28.0932 29.4301 28.08H109.49" stroke="#007B64" stroke-width="2" stroke-miterlimit="10" stroke-linecap="round"/>
<path d="M106.03 28.12H115.57C117.46 28.1358 119.266 28.8989 120.594 30.2424C121.923 31.5859 122.666 33.4006 122.66 35.29V100.38C122.663 101.952 122.147 103.482 121.19 104.73C120.534 105.6 119.685 106.307 118.71 106.795C117.735 107.282 116.66 107.537 115.57 107.54H108.07" stroke="#007B64" stroke-width="2" stroke-miterlimit="10" stroke-linecap="round"/>
<path d="M58.9201 107.52H131.98C132.245 107.52 132.5 107.625 132.687 107.813C132.875 108 132.98 108.255 132.98 108.52C132.987 110.022 132.697 111.511 132.128 112.902C131.56 114.292 130.722 115.557 129.665 116.624C128.607 117.691 127.35 118.539 125.964 119.12C124.579 119.701 123.092 120.003 121.59 120.01H23.3101C20.2777 119.991 17.3768 118.77 15.2448 116.613C13.1128 114.457 11.9241 111.542 11.9401 108.51V108.51C11.9401 108.245 12.0455 107.99 12.233 107.803C12.4205 107.615 12.6749 107.51 12.9401 107.51H51.4201" stroke="#007B64" stroke-width="2" stroke-miterlimit="10" stroke-linecap="round"/>
<path d="M30.8398 38.54L113.6 38.57" stroke="#007B64" stroke-width="2" stroke-miterlimit="10" stroke-linecap="round"/>
<path d="M110.3 32.64H91.4898C90.9707 32.64 90.5498 33.0609 90.5498 33.58C90.5498 34.0992 90.9707 34.52 91.4898 34.52H110.3C110.819 34.52 111.24 34.0992 111.24 33.58C111.24 33.0609 110.819 32.64 110.3 32.64Z" fill="#FFC463"/>
<path d="M33.8 32.25H33.79C33.0776 32.25 32.5 32.8276 32.5 33.54V33.57C32.5 34.2824 33.0776 34.86 33.79 34.86H33.8C34.5124 34.86 35.09 34.2824 35.09 33.57V33.54C35.09 32.8276 34.5124 32.25 33.8 32.25Z" fill="#C4C4C4"/>
<path d="M37.6799 32.25H37.6699C36.9574 32.25 36.3799 32.8276 36.3799 33.54V33.57C36.3799 34.2824 36.9574 34.86 37.6699 34.86H37.6799C38.3923 34.86 38.9699 34.2824 38.9699 33.57V33.54C38.9699 32.8276 38.3923 32.25 37.6799 32.25Z" fill="#C4C4C4"/>
<path d="M41.5598 32.25H41.5498C40.8373 32.25 40.2598 32.8276 40.2598 33.54V33.57C40.2598 34.2824 40.8373 34.86 41.5498 34.86H41.5598C42.2722 34.86 42.8498 34.2824 42.8498 33.57V33.54C42.8498 32.8276 42.2722 32.25 41.5598 32.25Z" fill="#C4C4C4"/>
<path d="M105.37 50.05H34.8801C33.2067 50.05 31.8501 51.4066 31.8501 53.08V61.65C31.8501 63.3235 33.2067 64.68 34.8801 64.68H105.37C107.044 64.68 108.4 63.3235 108.4 61.65V53.08C108.4 51.4066 107.044 50.05 105.37 50.05Z" fill="#FFC463"/>
<path d="M37.9601 70.3101H33.7201C32.6873 70.3101 31.8501 71.1473 31.8501 72.1801V76.5001C31.8501 77.5328 32.6873 78.3701 33.7201 78.3701H37.9601C38.9929 78.3701 39.8301 77.5328 39.8301 76.5001V72.1801C39.8301 71.1473 38.9929 70.3101 37.9601 70.3101Z" fill="#007B64"/>
<path d="M37.9601 82.55H33.7201C32.6873 82.55 31.8501 83.3873 31.8501 84.42V88.74C31.8501 89.7728 32.6873 90.61 33.7201 90.61H37.9601C38.9929 90.61 39.8301 89.7728 39.8301 88.74V84.42C39.8301 83.3873 38.9929 82.55 37.9601 82.55Z" fill="#007B64"/>
<path d="M65.2301 82.55H60.9901C59.9573 82.55 59.1201 83.3873 59.1201 84.42V88.74C59.1201 89.7728 59.9573 90.61 60.9901 90.61H65.2301C66.2629 90.61 67.1001 89.7728 67.1001 88.74V84.42C67.1001 83.3873 66.2629 82.55 65.2301 82.55Z" fill="#007B64"/>
<path d="M65.2301 70.3101H60.9901C59.9573 70.3101 59.1201 71.1473 59.1201 72.1801V76.5001C59.1201 77.5328 59.9573 78.3701 60.9901 78.3701H65.2301C66.2629 78.3701 67.1001 77.5328 67.1001 76.5001V72.1801C67.1001 71.1473 66.2629 70.3101 65.2301 70.3101Z" fill="#007B64"/>
<path d="M85.6499 77.53L86.8699 85.09C86.8896 85.2238 86.9438 85.3501 87.027 85.4566C87.1103 85.5632 87.2198 85.6462 87.3449 85.6976C87.4699 85.7491 87.6062 85.7671 87.7403 85.75C87.8744 85.7329 88.0018 85.6812 88.1099 85.6L93.5999 81.6C93.707 81.5213 93.7924 81.4168 93.8484 81.2962C93.9043 81.1756 93.9289 81.0429 93.92 80.9103C93.911 80.7777 93.8687 80.6495 93.797 80.5376C93.7254 80.4257 93.6266 80.3336 93.5099 80.27L86.7999 76.69C86.6687 76.6197 86.5204 76.5879 86.3719 76.5982C86.2234 76.6085 86.0809 76.6606 85.9607 76.7484C85.8406 76.8362 85.7476 76.9561 85.6926 77.0944C85.6376 77.2327 85.6228 77.3837 85.6499 77.53V77.53Z" fill="#FFC463"/>
<path d="M67.1898 71.41L63.1198 76.69L60.7998 74.34" stroke="#EBEBEB" stroke-width="1.64" stroke-linecap="round" stroke-linejoin="round"/>
</svg>

<svg width="145" height="145" fill="none" xmlns="http://www.w3.org/2000/svg"><path d="M5 120.03l135 .05" stroke="#007B64" stroke-width="2" stroke-miterlimit="10" stroke-linecap="round"/><path d="M58.92 107.52h73.06a.997.997 0 011 1 11.434 11.434 0 01-3.315 8.104 11.439 11.439 0 01-8.075 3.386H23.31a11.44 11.44 0 01-11.37-11.5 1 1 0 011-1h38.48M115.6 28H29.54a6.97 6.97 0 00-6.97 6.97v65.06a6.97 6.97 0 006.97 6.97h86.06a6.97 6.97 0 006.97-6.97V34.97A6.97 6.97 0 00115.6 28z" fill="#fff"/><path d="M62.93 107.52s7.52-11.61 26.25-12.12c19.16-.53 12-13.12 32.73-16.24l1 2.09V97.1s1 9.4-6.21 10.44c-7.21 1.04-53.77-.02-53.77-.02z" fill="#EBEBEB"/><path d="M22.33 100.34v-65.1a7.15 7.15 0 017.1-7.16h80.06" stroke="#007B64" stroke-width="2" stroke-miterlimit="10" stroke-linecap="round"/><path d="M106.03 28.12h9.54a7.147 7.147 0 017.09 7.17v65.09a7.126 7.126 0 01-1.47 4.35 7.069 7.069 0 01-5.62 2.81h-7.5" stroke="#007B64" stroke-width="2" stroke-miterlimit="10" stroke-linecap="round"/><path d="M58.92 107.52h73.06a.997.997 0 011 1 11.434 11.434 0 01-3.315 8.104 11.439 11.439 0 01-8.075 3.386H23.31a11.44 11.44 0 01-11.37-11.5v0a1 1 0 011-1h38.48M30.84 38.54l82.76.03" stroke="#007B64" stroke-width="2" stroke-miterlimit="10" stroke-linecap="round"/><path d="M110.3 32.64H91.49a.94.94 0 000 1.88h18.81a.94.94 0 000-1.88z" fill="#FFC463"/><path d="M33.8 32.25h-.01a1.29 1.29 0 00-1.29 1.29v.03c0 .712.578 1.29 1.29 1.29h.01a1.29 1.29 0 001.29-1.29v-.03a1.29 1.29 0 00-1.29-1.29zm3.88 0h-.01a1.29 1.29 0 00-1.29 1.29v.03c0 .712.577 1.29 1.29 1.29h.01a1.29 1.29 0 001.29-1.29v-.03a1.29 1.29 0 00-1.29-1.29zm3.88 0h-.01a1.29 1.29 0 00-1.29 1.29v.03c0 .712.577 1.29 1.29 1.29h.01a1.29 1.29 0 001.29-1.29v-.03a1.29 1.29 0 00-1.29-1.29z" fill="#C4C4C4"/><path d="M105.37 50.05H34.88a3.03 3.03 0 00-3.03 3.03v8.57a3.03 3.03 0 003.03 3.03h70.49a3.03 3.03 0 003.03-3.03v-8.57a3.03 3.03 0 00-3.03-3.03z" fill="#FFC463"/><path d="M37.96 70.31h-4.24a1.87 1.87 0 00-1.87 1.87v4.32a1.87 1.87 0 001.87 1.87h4.24a1.87 1.87 0 001.87-1.87v-4.32a1.87 1.87 0 00-1.87-1.87zm0 12.24h-4.24a1.87 1.87 0 00-1.87 1.87v4.32a1.87 1.87 0 001.87 1.87h4.24a1.87 1.87 0 001.87-1.87v-4.32a1.87 1.87 0 00-1.87-1.87zm27.27 0h-4.24a1.87 1.87 0 00-1.87 1.87v4.32a1.87 1.87 0 001.87 1.87h4.24a1.87 1.87 0 001.87-1.87v-4.32a1.87 1.87 0 00-1.87-1.87zm0-12.24h-4.24a1.87 1.87 0 00-1.87 1.87v4.32a1.87 1.87 0 001.87 1.87h4.24a1.87 1.87 0 001.87-1.87v-4.32a1.87 1.87 0 00-1.87-1.87z" fill="#007B64"/><path d="M85.65 77.53l1.22 7.56a.78.78 0 001.24.51l5.49-4a.79.79 0 00-.09-1.33l-6.71-3.58a.79.79 0 00-1.15.84z" fill="#FFC463"/><path d="M67.19 71.41l-4.07 5.28-2.32-2.35" stroke="#EBEBEB" stroke-width="1.64" stroke-linecap="round" stroke-linejoin="round"/></svg>
